src/assets/fedi.svg

<svg xmlns="http://www.w3.org/2000/svg" width="1993" height="532" fill="none" viewBox="0 0 1993 532"><path fill="#fff" fill-rule="evenodd" d="M1937.4 110.432c15.47 0 28.3-5.248 39.25-16.066S1993 70.337 1993 54.94s-5.31-28.402-16.35-39.105C1965.7 5.133 1952.87 0 1937.4 0s-29.86 5.363-40.69 15.835c-10.84 10.703-16.26 23.477-16.26 39.105s5.52 28.724 16.35 39.426c10.83 10.588 24.43 16.066 40.58 16.066zM746.365 522.283H643.874V8.516h325.92v92.755H746.365v125.185h188.28v89.901h-188.28zM0 8.746h341.061v101.916H103.05v411.184H0zm342.505 256.608c0 45.111-37.153 81.822-82.808 81.822-45.771 0-82.924-36.596-82.924-81.822s37.269-81.938 82.924-81.938 82.808 36.826 82.808 81.938m73.63 154.668H178.217v101.824h341.061V8.746H416.135zm1281.785-196.19-9.95-13.004c-9.85-12.889-24.31-23.476-42.9-31.233-18.89-7.963-39.69-12.014-61.92-12.014-34.61 0-65.12 7.871-90.86 23.384-25.44 15.398-45.33 37.24-59.26 64.768-13.93 27.757-21.01 60.187-21.01 96.576s6.96 68.381 20.57 95.264c13.72 26.652 32.93 47.528 57.16 61.936 24.43 14.523 53.74 21.958 87 21.958 24.88 0 47.54-5.018 67.55-15.076 19.8-9.828 34.61-22.717 44.23-38.345l8.3-13.533 1.88 15.72 5.2 42.05h90.77V8.516h-96.74v215.316zm-12.83 174.785c-8.18 14.846-19.57 26.538-33.73 34.409-14.38 8.079-30.73 12.13-48.76 12.13s-35.05-4.143-49.07-12.452c-14.17-8.401-25.09-19.978-32.73-34.524-7.53-14.431-11.39-31.233-11.39-50.037s3.86-35.077 11.39-49.37c7.64-14.753 18.68-26.33 32.73-34.524 13.81-8.309 30.3-12.452 49.07-12.452 18.78 0 34.62 4.051 48.76 12.13 14.16 7.963 25.55 19.333 33.73 33.971 8.06 14.524 12.15 31.464 12.15 50.245s-4.09 35.606-12.15 50.474m204.65-219.689h96.74V522.26h-96.74zm-717.29-11.347c36.82 0 68.64 7.526 94.66 22.279 26.09 14.984 46.52 36.021 60.66 62.812 14.41 27.067 21.66 59.658 21.66 96.829v28.149h-261.84l.21 1.565c2.82 21.059 9.57 37.884 20.08 50.129 14.93 17.538 38.2 26.423 68.92 26.423 22.39 0 41.3-3.936 56.16-11.601 10.72-5.662 18.85-12.958 24.27-21.911h89.87c-8.06 31.072-25.51 55.929-53.27 75.47-31.59 22.326-71.75 33.719-119.29 33.719-34.15 0-65.22-7.872-92.33-23.339-26.95-15.536-48.48-37.171-63.99-64.376-15.44-27.09-23.409-58.806-23.409-94.251s7.619-67.115 22.689-94.321c15.07-27.205 36.08-48.84 62.61-64.238 26.6-15.467 57.77-23.338 92.34-23.338m-77.62 123.896c-2.16 5.593-3.91 11.83-5.42 18.988l.02-.023h163.94c-.45-20.116-7.83-36.365-21.97-48.472-14.28-12.383-33.94-18.689-58.28-18.689-19.59 0-36.1 3.936-49.15 11.669-13.34 8.102-23.06 20.416-29.14 36.527" clip-rule="evenodd"/><path fill="url(#a)" fill-opacity=".13" fill-rule="evenodd" d="M1937.4 110.432c15.47 0 28.3-5.248 39.25-16.066S1993 70.337 1993 54.94s-5.31-28.402-16.35-39.105C1965.7 5.133 1952.87 0 1937.4 0s-29.86 5.363-40.69 15.835c-10.84 10.703-16.26 23.477-16.26 39.105s5.52 28.724 16.35 39.426c10.83 10.588 24.43 16.066 40.58 16.066zM746.365 522.283H643.874V8.516h325.92v92.755H746.365v125.185h188.28v89.901h-188.28zM0 8.746h341.061v101.916H103.05v411.184H0zm342.505 256.608c0 45.111-37.153 81.822-82.808 81.822-45.771 0-82.924-36.596-82.924-81.822s37.269-81.938 82.924-81.938 82.808 36.826 82.808 81.938m73.63 154.668H178.217v101.824h341.061V8.746H416.135zm1281.785-196.19-9.95-13.004c-9.85-12.889-24.31-23.476-42.9-31.233-18.89-7.963-39.69-12.014-61.92-12.014-34.61 0-65.12 7.871-90.86 23.384-25.44 15.398-45.33 37.24-59.26 64.768-13.93 27.757-21.01 60.187-21.01 96.576s6.96 68.381 20.57 95.264c13.72 26.652 32.93 47.528 57.16 61.936 24.43 14.523 53.74 21.958 87 21.958 24.88 0 47.54-5.018 67.55-15.076 19.8-9.828 34.61-22.717 44.23-38.345l8.3-13.533 1.88 15.72 5.2 42.05h90.77V8.516h-96.74v215.316zm-12.83 174.785c-8.18 14.846-19.57 26.538-33.73 34.409-14.38 8.079-30.73 12.13-48.76 12.13s-35.05-4.143-49.07-12.452c-14.17-8.401-25.09-19.978-32.73-34.524-7.53-14.431-11.39-31.233-11.39-50.037s3.86-35.077 11.39-49.37c7.64-14.753 18.68-26.33 32.73-34.524 13.81-8.309 30.3-12.452 49.07-12.452 18.78 0 34.62 4.051 48.76 12.13 14.16 7.963 25.55 19.333 33.73 33.971 8.06 14.524 12.15 31.464 12.15 50.245s-4.09 35.606-12.15 50.474m204.65-219.689h96.74V522.26h-96.74zm-717.29-11.347c36.82 0 68.64 7.526 94.66 22.279 26.09 14.984 46.52 36.021 60.66 62.812 14.41 27.067 21.66 59.658 21.66 96.829v28.149h-261.84l.21 1.565c2.82 21.059 9.57 37.884 20.08 50.129 14.93 17.538 38.2 26.423 68.92 26.423 22.39 0 41.3-3.936 56.16-11.601 10.72-5.662 18.85-12.958 24.27-21.911h89.87c-8.06 31.072-25.51 55.929-53.27 75.47-31.59 22.326-71.75 33.719-119.29 33.719-34.15 0-65.22-7.872-92.33-23.339-26.95-15.536-48.48-37.171-63.99-64.376-15.44-27.09-23.409-58.806-23.409-94.251s7.619-67.115 22.689-94.321c15.07-27.205 36.08-48.84 62.61-64.238 26.6-15.467 57.77-23.338 92.34-23.338m-77.62 123.896c-2.16 5.593-3.91 11.83-5.42 18.988l.02-.023h163.94c-.45-20.116-7.83-36.365-21.97-48.472-14.28-12.383-33.94-18.689-58.28-18.689-19.59 0-36.1 3.936-49.15 11.669-13.34 8.102-23.06 20.416-29.14 36.527" clip-rule="evenodd"/><defs><radialGradient id="a" cx="0" cy="0" r="1" gradientTransform="rotate(11.767 -550.447 776.108)scale(1830.08 1442.23)" gradientUnits="userSpaceOnUse"><stop offset=".026" stop-color="#e02020" stop-opacity=".3"/><stop offset=".197" stop-color="#f7b500" stop-opacity=".3"/><stop offset=".338" stop-color="#6dd400" stop-opacity=".3"/><stop offset=".471" stop-color="#0091ff" stop-opacity=".3"/><stop offset=".591" stop-color="#fa6400" stop-opacity=".3"/><stop offset=".736" stop-color="#fff" stop-opacity=".1"/><stop offset=".84" stop-color="#6236ff" stop-opacity=".3"/><stop offset="1" stop-color="#b620e0" stop-opacity=".3"/></radialGradient></defs></svg>

<svg width="1993" height="532" viewBox="0 0 1993 532" fill="none" xmlns="http://www.w3.org/2000/svg">
<path fill-rule="evenodd" clip-rule="evenodd" d="M1937.4 110.432C1952.87 110.432 1965.7 105.184 1976.65 94.3663C1987.6 83.5487 1993 70.3374 1993 54.9396C1993 39.5418 1987.69 26.5377 1976.65 15.8351C1965.7 5.13261 1952.87 0 1937.4 0C1921.93 0 1907.54 5.36277 1896.71 15.8351C1885.87 26.5377 1880.45 39.3116 1880.45 54.9396C1880.45 70.5676 1885.97 83.6638 1896.8 94.3663C1907.63 104.954 1921.23 110.432 1937.38 110.432H1937.4ZM746.365 522.283H643.874V8.51599H969.794V101.271H746.365V226.456H934.645V316.357H746.365V522.283ZM0 8.74615H341.061V110.662H103.05V521.846H0V8.74615ZM342.505 265.354C342.505 310.465 305.352 347.176 259.697 347.176C213.926 347.176 176.773 310.58 176.773 265.354C176.773 220.127 214.042 183.416 259.697 183.416C305.352 183.416 342.505 220.242 342.505 265.354ZM416.135 420.022H178.217V521.846H519.278V8.74615H416.135V420.022ZM1697.92 223.832L1687.97 210.828C1678.12 197.939 1663.66 187.352 1645.07 179.595C1626.18 171.632 1605.38 167.581 1583.15 167.581C1548.54 167.581 1518.03 175.452 1492.29 190.965C1466.85 206.363 1446.96 228.205 1433.03 255.733C1419.1 283.49 1412.02 315.92 1412.02 352.309C1412.02 388.697 1418.98 420.69 1432.59 447.573C1446.31 474.225 1465.52 495.101 1489.75 509.509C1514.18 524.032 1543.49 531.467 1576.75 531.467C1601.63 531.467 1624.29 526.449 1644.3 516.391C1664.1 506.563 1678.91 493.674 1688.53 478.046L1696.83 464.513L1698.71 480.233L1703.91 522.283H1794.68V8.51599H1697.94V223.832H1697.92ZM1685.09 398.617C1676.91 413.463 1665.52 425.155 1651.36 433.026C1636.98 441.105 1620.63 445.156 1602.6 445.156C1584.57 445.156 1567.55 441.013 1553.53 432.704C1539.36 424.303 1528.44 412.726 1520.8 398.18C1513.27 383.749 1509.41 366.947 1509.41 348.143C1509.41 329.339 1513.27 313.066 1520.8 298.773C1528.44 284.02 1539.48 272.443 1553.53 264.249C1567.34 255.94 1583.83 251.797 1602.6 251.797C1621.38 251.797 1637.22 255.848 1651.36 263.927C1665.52 271.89 1676.91 283.26 1685.09 297.898C1693.15 312.422 1697.24 329.362 1697.24 348.143C1697.24 366.924 1693.15 383.749 1685.09 398.617ZM1889.74 178.928H1986.48V522.26H1889.74V178.928ZM1172.45 167.581C1209.27 167.581 1241.09 175.107 1267.11 189.86C1293.2 204.844 1313.63 225.881 1327.77 252.672C1342.18 279.739 1349.43 312.33 1349.43 349.501V377.65H1087.59L1087.8 379.215C1090.62 400.274 1097.37 417.099 1107.88 429.344C1122.81 446.882 1146.08 455.767 1176.8 455.767C1199.19 455.767 1218.1 451.831 1232.96 444.166C1243.68 438.504 1251.81 431.208 1257.23 422.255H1347.1C1339.04 453.327 1321.59 478.184 1293.83 497.725C1262.24 520.051 1222.08 531.444 1174.54 531.444C1140.39 531.444 1109.32 523.572 1082.21 508.105C1055.26 492.569 1033.73 470.934 1018.22 443.729C1002.78 416.639 994.811 384.923 994.811 349.478C994.811 314.033 1002.43 282.363 1017.5 255.157C1032.57 227.952 1053.58 206.317 1080.11 190.919C1106.71 175.452 1137.88 167.581 1172.45 167.581ZM1094.83 291.477C1092.67 297.07 1090.92 303.307 1089.41 310.465L1089.43 310.442H1253.37C1252.92 290.326 1245.54 274.077 1231.4 261.97C1217.12 249.587 1197.46 243.281 1173.12 243.281C1153.53 243.281 1137.02 247.217 1123.97 254.95C1110.63 263.052 1100.91 275.366 1094.83 291.477Z" fill="white"/>
<path fill-rule="evenodd" clip-rule="evenodd" d="M1937.4 110.432C1952.87 110.432 1965.7 105.184 1976.65 94.3663C1987.6 83.5487 1993 70.3374 1993 54.9396C1993 39.5418 1987.69 26.5377 1976.65 15.8351C1965.7 5.13261 1952.87 0 1937.4 0C1921.93 0 1907.54 5.36277 1896.71 15.8351C1885.87 26.5377 1880.45 39.3116 1880.45 54.9396C1880.45 70.5676 1885.97 83.6638 1896.8 94.3663C1907.63 104.954 1921.23 110.432 1937.38 110.432H1937.4ZM746.365 522.283H643.874V8.51599H969.794V101.271H746.365V226.456H934.645V316.357H746.365V522.283ZM0 8.74615H341.061V110.662H103.05V521.846H0V8.74615ZM342.505 265.354C342.505 310.465 305.352 347.176 259.697 347.176C213.926 347.176 176.773 310.58 176.773 265.354C176.773 220.127 214.042 183.416 259.697 183.416C305.352 183.416 342.505 220.242 342.505 265.354ZM416.135 420.022H178.217V521.846H519.278V8.74615H416.135V420.022ZM1697.92 223.832L1687.97 210.828C1678.12 197.939 1663.66 187.352 1645.07 179.595C1626.18 171.632 1605.38 167.581 1583.15 167.581C1548.54 167.581 1518.03 175.452 1492.29 190.965C1466.85 206.363 1446.96 228.205 1433.03 255.733C1419.1 283.49 1412.02 315.92 1412.02 352.309C1412.02 388.697 1418.98 420.69 1432.59 447.573C1446.31 474.225 1465.52 495.101 1489.75 509.509C1514.18 524.032 1543.49 531.467 1576.75 531.467C1601.63 531.467 1624.29 526.449 1644.3 516.391C1664.1 506.563 1678.91 493.674 1688.53 478.046L1696.83 464.513L1698.71 480.233L1703.91 522.283H1794.68V8.51599H1697.94V223.832H1697.92ZM1685.09 398.617C1676.91 413.463 1665.52 425.155 1651.36 433.026C1636.98 441.105 1620.63 445.156 1602.6 445.156C1584.57 445.156 1567.55 441.013 1553.53 432.704C1539.36 424.303 1528.44 412.726 1520.8 398.18C1513.27 383.749 1509.41 366.947 1509.41 348.143C1509.41 329.339 1513.27 313.066 1520.8 298.773C1528.44 284.02 1539.48 272.443 1553.53 264.249C1567.34 255.94 1583.83 251.797 1602.6 251.797C1621.38 251.797 1637.22 255.848 1651.36 263.927C1665.52 271.89 1676.91 283.26 1685.09 297.898C1693.15 312.422 1697.24 329.362 1697.24 348.143C1697.24 366.924 1693.15 383.749 1685.09 398.617ZM1889.74 178.928H1986.48V522.26H1889.74V178.928ZM1172.45 167.581C1209.27 167.581 1241.09 175.107 1267.11 189.86C1293.2 204.844 1313.63 225.881 1327.77 252.672C1342.18 279.739 1349.43 312.33 1349.43 349.501V377.65H1087.59L1087.8 379.215C1090.62 400.274 1097.37 417.099 1107.88 429.344C1122.81 446.882 1146.08 455.767 1176.8 455.767C1199.19 455.767 1218.1 451.831 1232.96 444.166C1243.68 438.504 1251.81 431.208 1257.23 422.255H1347.1C1339.04 453.327 1321.59 478.184 1293.83 497.725C1262.24 520.051 1222.08 531.444 1174.54 531.444C1140.39 531.444 1109.32 523.572 1082.21 508.105C1055.26 492.569 1033.73 470.934 1018.22 443.729C1002.78 416.639 994.811 384.923 994.811 349.478C994.811 314.033 1002.43 282.363 1017.5 255.157C1032.57 227.952 1053.58 206.317 1080.11 190.919C1106.71 175.452 1137.88 167.581 1172.45 167.581ZM1094.83 291.477C1092.67 297.07 1090.92 303.307 1089.41 310.465L1089.43 310.442H1253.37C1252.92 290.326 1245.54 274.077 1231.4 261.97C1217.12 249.587 1197.46 243.281 1173.12 243.281C1153.53 243.281 1137.02 247.217 1123.97 254.95C1110.63 263.052 1100.91 275.366 1094.83 291.477Z" fill="url(#paint0_radial_230_1074)" fill-opacity="0.13"/>
<defs>
<radialGradient id="paint0_radial_230_1074" cx="0" cy="0" r="1" gradientUnits="userSpaceOnUse" gradientTransform="translate(146.707 128.565) rotate(11.7671) scale(1830.08 1442.23)">
<stop offset="0.025951" stop-color="#E02020" stop-opacity="0.3"/>
<stop offset="0.197364" stop-color="#F7B500" stop-opacity="0.3"/>
<stop offset="0.33762" stop-color="#6DD400" stop-opacity="0.3"/>
<stop offset="0.470811" stop-color="#0091FF" stop-opacity="0.3"/>
<stop offset="0.591474" stop-color="#FA6400" stop-opacity="0.3"/>
<stop offset="0.736251" stop-color="white" stop-opacity="0.1"/>
<stop offset="0.840157" stop-color="#6236FF" stop-opacity="0.3"/>
<stop offset="1" stop-color="#B620E0" stop-opacity="0.3"/>
</radialGradient>
</defs>
</svg>
